Numix-Square/48x48/apps/chrome-njkkjobcechefaoknodniidfjapgfoco-Default.svg

<svg xmlns="http://www.w3.org/2000/svg" xmlns:xlink="http://www.w3.org/1999/xlink" width="48" height="48">
 <defs>
  <linearGradient id="0">
   <stop stop-color="#204a87"/>
   <stop offset="1" stop-color="#6984aa"/>
  </linearGradient>
  <linearGradient xlink:href="#0" id="1" gradientUnits="userSpaceOnUse" gradientTransform="translate(0,-1004.3622)" y1="1050.36" x2="0" y2="1006.36"/>
 </defs>
 <g transform="translate(0,-1004.3622)">
  <path d="M 5.1875,1 C 2.8707723,1 1,2.8707723 1,5.1875 l 0,37.625 C 1,45.129228 2.8707723,47 5.1875,47 l 37.625,0 C 45.129228,47 47,45.129228 47,42.8125 L 47,5.1875 C 47,2.8707723 45.129228,1 42.8125,1 L 5.1875,1 z m 0.1875,0.25 37.25,0 c 2.291546,0 4.125,1.8334541 4.125,4.125 l 0,37.25 c 0,2.291546 -1.833454,4.125 -4.125,4.125 l -37.25,0 C 3.0834541,46.75 1.25,44.916546 1.25,42.625 l 0,-37.25 C 1.25,3.0834541 3.0834541,1.25 5.375,1.25 z" transform="translate(0,1004.3622)" opacity="0.05"/>
  <path d="M 5.375,1.25 C 3.0834541,1.25 1.25,3.0834541 1.25,5.375 l 0,37.25 c 0,2.291546 1.8334541,4.125 4.125,4.125 l 37.25,0 c 2.291546,0 4.125,-1.833454 4.125,-4.125 l 0,-37.25 C 46.75,3.0834541 44.916546,1.25 42.625,1.25 l -37.25,0 z m 0.21875,0.25 36.8125,0 C 44.672614,1.5 46.5,3.3273859 46.5,5.59375 l 0,36.8125 C 46.5,44.672614 44.672614,46.5 42.40625,46.5 l -36.8125,0 C 3.3273859,46.5 1.5,44.672614 1.5,42.40625 l 0,-36.8125 C 1.5,3.3273859 3.3273859,1.5 5.59375,1.5 z" transform="translate(0,1004.3622)" opacity="0.1"/>
  <path d="M 5.59375,1.5 C 3.3273859,1.5 1.5,3.3273859 1.5,5.59375 l 0,36.8125 C 1.5,44.672614 3.3273859,46.5 5.59375,46.5 l 36.8125,0 C 44.672614,46.5 46.5,44.672614 46.5,42.40625 l 0,-36.8125 C 46.5,3.3273859 44.672614,1.5 42.40625,1.5 l -36.8125,0 z m 0.09375,0.125 36.625,0 c 2.253773,0 4.0625,1.8087269 4.0625,4.0625 l 0,36.625 c 0,2.253773 -1.808727,4.0625 -4.0625,4.0625 l -36.625,0 c -2.2537731,0 -4.0625,-1.808727 -4.0625,-4.0625 l 0,-36.625 C 1.625,3.4337269 3.4337269,1.625 5.6875,1.625 z" transform="translate(0,1004.3622)" opacity="0.2"/>
  <path d="M 5.6875,1.625 C 3.4337269,1.625 1.625,3.4337269 1.625,5.6875 l 0,36.625 c 0,2.253773 1.8087269,4.0625 4.0625,4.0625 l 36.625,0 c 2.253773,0 4.0625,-1.808727 4.0625,-4.0625 l 0,-36.625 c 0,-2.2537731 -1.808727,-4.0625 -4.0625,-4.0625 l -36.625,0 z m 0.09375,0.125 36.4375,0 c 2.241182,0 4.03125,1.7900679 4.03125,4.03125 l 0,36.4375 c 0,2.241182 -1.790068,4.03125 -4.03125,4.03125 l -36.4375,0 C 3.5400679,46.25 1.75,44.459932 1.75,42.21875 l 0,-36.4375 C 1.75,3.5400679 3.5400679,1.75 5.78125,1.75 z" transform="translate(0,1004.3622)" opacity="0.3"/>
  <path d="M 5.78125,1.75 C 3.5400679,1.75 1.75,3.5400679 1.75,5.78125 l 0,36.4375 c 0,2.241182 1.7900679,4.03125 4.03125,4.03125 l 36.4375,0 c 2.241182,0 4.03125,-1.790068 4.03125,-4.03125 l 0,-36.4375 C 46.25,3.5400679 44.459932,1.75 42.21875,1.75 l -36.4375,0 z m 0.125,0.125 36.1875,0 c 2.228591,0 4.03125,1.802659 4.03125,4.03125 l 0,36.1875 c 0,2.228591 -1.802659,4.03125 -4.03125,4.03125 l -36.1875,0 C 3.677659,46.125 1.875,44.322341 1.875,42.09375 l 0,-36.1875 C 1.875,3.677659 3.677659,1.875 5.90625,1.875 z" transform="translate(0,1004.3622)" opacity="0.4"/>
  <rect rx="4.02" y="1006.24" x="1.875" height="44.25" width="44.25" opacity="0.5"/>
 </g>
 <rect rx="4" y="1.998" x="2" height="44" width="44" fill="url(#1)"/>
 <path d="M 21.375 11 C 20.859991 11 20.462983 11.2633 20.21875 11.625 C 19.969215 11.9817 19.8697 12.4264 19.875 12.8125 C 19.894113 13.62187 20.296378 14.306742 20.875 14.84375 C 19.917991 15.268671 19.027601 15.854684 18.34375 16.59375 C 17.66415 17.27315 17.010766 18.0382 16.71875 18.9375 C 16.72405 19.0792 16.77001 19.20695 16.8125 19.34375 C 16.377132 19.37275 15.865134 19.30475 15.5625 19.65625 C 15.015634 20.21345 14.864527 21.0033 14.59375 21.6875 C 13.367285 25.5925 14.01279 30.0564 16.625 33.375 C 18.042603 35.1589 20.146735 36.54465 22.5625 36.90625 C 23.866139 37.092344 24.631588 37.147817 25.84375 36.84375 C 28.312608 36.34525 30.422656 34.78895 31.75 32.84375 C 34.208237 29.34945 34.617539 24.7751 33.09375 20.875 C 32.891994 20.4107 32.710703 19.88805 32.3125 19.53125 C 32.047032 19.36025 31.693561 19.30085 31.375 19.28125 C 31.582064 18.89025 31.46419 18.4378 31.15625 18.125 C 30.215063 16.707281 28.867274 15.445141 27.21875 14.75 C 27.745651 14.226422 28.138199 13.576905 28.15625 12.8125 C 28.16155 12.4264 28.030792 11.9817 27.78125 11.625 C 27.536999 11.2633 27.140009 11 26.625 11 C 26.455102 11 26.284283 11.0273 26.125 11.125 C 25.965722 11.223 25.807192 11.4099 25.8125 11.625 C 25.83372 11.703 25.81779 11.76075 25.8125 11.84375 C 25.8125 12.08325 26.047036 12.28125 26.3125 12.28125 C 26.57266 12.28125 26.78125 12.08325 26.78125 11.84375 C 26.78125 11.60435 26.572661 11.41115 26.3125 11.40625 C 26.40276 11.35225 26.52943 11.3175 26.625 11.3125 C 27.001965 11.3125 27.266993 11.5193 27.46875 11.8125 C 27.670506 12.1058 27.786558 12.4948 27.78125 12.8125 C 27.766834 13.528075 27.408384 14.137866 26.875 14.625 C 26.688155 14.556889 26.506624 14.490647 26.3125 14.4375 C 25.441762 14.2127 24.553535 14.15135 23.65625 14.15625 C 22.812262 14.190699 21.997833 14.385506 21.21875 14.6875 C 20.644273 14.190609 20.233777 13.560277 20.21875 12.8125 C 20.213439 12.4948 20.329495 12.1058 20.53125 11.8125 C 20.733007 11.5193 20.998035 11.3125 21.375 11.3125 C 21.470566 11.3175 21.59723 11.35225 21.6875 11.40625 C 21.427339 11.41115 21.25 11.60435 21.25 11.84375 C 21.25 12.08325 21.458594 12.28125 21.71875 12.28125 C 21.984215 12.28125 22.1875 12.08325 22.1875 11.84375 C 22.18221 11.76075 22.16628 11.703 22.1875 11.625 C 22.192808 11.4099 22.065528 11.223 21.90625 11.125 C 21.746968 11.0273 21.544898 11 21.375 11 z M 21.21875 16.96875 C 22.591843 19.215053 24.974359 21.765387 24.5 23.4375 C 22.46874 26.214411 19.928306 26.083928 18.09375 23.4375 C 17.684915 21.996385 19.823605 19.251094 21.21875 16.96875 z M 28.3125 24.09375 C 29.290474 25.69366 30.962858 27.496552 30.625 28.6875 C 29.178252 30.665331 27.369147 30.572396 26.0625 28.6875 C 25.771311 27.661078 27.31882 25.71933 28.3125 24.09375 z M 21.625 30.125 C 22.323098 31.267048 23.52242 32.556127 23.28125 33.40625 C 22.248532 34.818066 20.963961 34.751727 20.03125 33.40625 C 19.823393 32.673569 20.915691 31.285372 21.625 30.125 z " fill="#f9f9f9"/>
</svg>

<svg viewBox="0 0 48 48"><defs><linearGradient id="linearGradient3764" x1="1" x2="47" gradientUnits="userSpaceOnUse" gradientTransform="translate(-47.997785,0.00221467)"><stop stop-color="#506d94" stop-opacity="1"/><stop offset="1" stop-color="#5776a1" stop-opacity="1"/></linearGradient><clipPath id="clipPath-114176530"><g transform="translate(0,-1004.3622)"><rect rx="4" y="1005.36" x="1" height="46" width="46" fill="#1890d0"/></g></clipPath><clipPath id="clipPath-127733876"><g transform="translate(0,-1004.3622)"><rect rx="4" y="1005.36" x="1" height="46" width="46" fill="#1890d0"/></g></clipPath></defs><g><g transform="translate(0,-1004.3622)"><path d="m 5 1006.36 c -2.216 0 -4 1.784 -4 4 l 0 37.25 c 0 2.216 1.784 4 4 4 l 38 0 c 2.216 0 4 -1.784 4 -4 l 0 -37.25 c 0 -2.216 -1.784 -4 -4 -4 l -38 0 z m -4 41.5 0 0.5 c 0 2.216 1.784 4 4 4 l 38 0 c 2.216 0 4 -1.784 4 -4 l 0 -0.5 c 0 2.216 -1.784 4 -4 4 l -38 0 c -2.216 0 -4 -1.784 -4 -4 z" opacity="0.02"/><path d="m 1 1047.61 0 0.25 c 0 2.216 1.784 4 4 4 l 38 0 c 2.216 0 4 -1.784 4 -4 l 0 -0.25 c 0 2.216 -1.784 4 -4 4 l -38 0 c -2.216 0 -4 -1.784 -4 -4 z" opacity="0.05"/><rect width="46" height="46" x="1" y="1005.61" rx="4" opacity="0.1"/></g></g><g><rect width="46" height="46" x="-46.998" y="1" rx="4" transform="matrix(0,-1,1,0,0,0)" fill="url(#linearGradient3764)" fill-opacity="1"/></g><g/><g><g clip-path="url(#clipPath-114176530)"><g opacity="0.1"><!-- color: #5776a1 --><g><path d="m 21.375 11 c -0.516 0 -0.91 0.262 -1.156 0.625 c -0.25 0.355 -0.348 0.801 -0.344 1.188 c 0.02 0.809 0.422 1.496 1 2.031 c -0.957 0.426 -1.848 1.012 -2.531 1.75 c -0.68 0.68 -1.332 1.445 -1.625 2.344 c 0.004 0.141 0.051 0.27 0.094 0.406 c -0.434 0.027 -0.945 -0.039 -1.25 0.313 c -0.547 0.559 -0.699 1.348 -0.969 2.031 c -1.227 3.906 -0.582 8.371 2.031 11.688 c 1.418 1.785 3.523 3.172 5.938 3.531 c 1.305 0.188 2.07 0.242 3.281 -0.063 c 2.469 -0.496 4.578 -2.055 5.906 -4 c 2.457 -3.492 2.867 -8.07 1.344 -11.969 c -0.203 -0.465 -0.383 -0.988 -0.781 -1.344 c -0.266 -0.172 -0.617 -0.23 -0.938 -0.25 c 0.207 -0.391 0.09 -0.844 -0.219 -1.156 c -0.941 -1.418 -2.289 -2.68 -3.938 -3.375 c 0.527 -0.523 0.918 -1.172 0.938 -1.938 c 0.004 -0.387 -0.125 -0.832 -0.375 -1.188 c -0.246 -0.363 -0.641 -0.625 -1.156 -0.625 c -0.172 0 -0.34 0.027 -0.5 0.125 c -0.16 0.098 -0.316 0.285 -0.313 0.5 c 0.02 0.078 0.004 0.137 0 0.219 c 0 0.238 0.234 0.438 0.5 0.438 c 0.258 0 0.469 -0.199 0.469 -0.438 c 0 -0.238 -0.211 -0.434 -0.469 -0.438 c 0.09 -0.055 0.215 -0.09 0.313 -0.094 c 0.379 0 0.641 0.207 0.844 0.5 c 0.203 0.293 0.316 0.68 0.313 1 c -0.012 0.715 -0.371 1.324 -0.906 1.813 c -0.188 -0.07 -0.367 -0.137 -0.563 -0.188 c -0.871 -0.227 -1.758 -0.289 -2.656 -0.281 c -0.844 0.031 -1.656 0.227 -2.438 0.531 c -0.574 -0.5 -0.984 -1.129 -1 -1.875 c -0.004 -0.32 0.109 -0.707 0.313 -1 c 0.203 -0.293 0.469 -0.5 0.844 -0.5 c 0.098 0.004 0.223 0.039 0.313 0.094 c -0.258 0.004 -0.438 0.195 -0.438 0.438 c 0 0.238 0.211 0.438 0.469 0.438 c 0.266 0 0.469 -0.199 0.469 -0.438 c -0.004 -0.082 -0.02 -0.141 0 -0.219 c 0.008 -0.215 -0.121 -0.402 -0.281 -0.5 c -0.148 -0.098 -0.352 -0.125 -0.52 -0.125 m -0.16 5.969 c 1.375 2.246 3.758 4.797 3.281 6.469 c -2.031 2.777 -4.57 2.648 -6.406 0 c -0.41 -1.441 1.727 -4.184 3.125 -6.469 m 7.094 7.125 c 0.977 1.602 2.652 3.402 2.313 4.594 c -1.445 1.977 -3.254 1.887 -4.563 0 c -0.289 -1.027 1.258 -2.969 2.25 -4.594 m -6.688 6.03 c 0.691 1.148 1.895 2.438 1.648 3.281 c -1.035 1.41 -2.313 1.344 -3.25 0 c -0.207 -0.727 0.883 -2.121 1.602 -3.281 m 0 0" stroke="none" fill-rule="nonzero" fill-opacity="1" fill="#000"/></g></g></g></g><g><g clip-path="url(#clipPath-127733876)"><g transform="translate(0,-1)"><!-- color: #5776a1 --><g><path d="m 21.375 11 c -0.516 0 -0.91 0.262 -1.156 0.625 c -0.25 0.355 -0.348 0.801 -0.344 1.188 c 0.02 0.809 0.422 1.496 1 2.031 c -0.957 0.426 -1.848 1.012 -2.531 1.75 c -0.68 0.68 -1.332 1.445 -1.625 2.344 c 0.004 0.141 0.051 0.27 0.094 0.406 c -0.434 0.027 -0.945 -0.039 -1.25 0.313 c -0.547 0.559 -0.699 1.348 -0.969 2.031 c -1.227 3.906 -0.582 8.371 2.031 11.688 c 1.418 1.785 3.523 3.172 5.938 3.531 c 1.305 0.188 2.07 0.242 3.281 -0.063 c 2.469 -0.496 4.578 -2.055 5.906 -4 c 2.457 -3.492 2.867 -8.07 1.344 -11.969 c -0.203 -0.465 -0.383 -0.988 -0.781 -1.344 c -0.266 -0.172 -0.617 -0.23 -0.938 -0.25 c 0.207 -0.391 0.09 -0.844 -0.219 -1.156 c -0.941 -1.418 -2.289 -2.68 -3.938 -3.375 c 0.527 -0.523 0.918 -1.172 0.938 -1.938 c 0.004 -0.387 -0.125 -0.832 -0.375 -1.188 c -0.246 -0.363 -0.641 -0.625 -1.156 -0.625 c -0.172 0 -0.34 0.027 -0.5 0.125 c -0.16 0.098 -0.316 0.285 -0.313 0.5 c 0.02 0.078 0.004 0.137 0 0.219 c 0 0.238 0.234 0.438 0.5 0.438 c 0.258 0 0.469 -0.199 0.469 -0.438 c 0 -0.238 -0.211 -0.434 -0.469 -0.438 c 0.09 -0.055 0.215 -0.09 0.313 -0.094 c 0.379 0 0.641 0.207 0.844 0.5 c 0.203 0.293 0.316 0.68 0.313 1 c -0.012 0.715 -0.371 1.324 -0.906 1.813 c -0.188 -0.07 -0.367 -0.137 -0.563 -0.188 c -0.871 -0.227 -1.758 -0.289 -2.656 -0.281 c -0.844 0.031 -1.656 0.227 -2.438 0.531 c -0.574 -0.5 -0.984 -1.129 -1 -1.875 c -0.004 -0.32 0.109 -0.707 0.313 -1 c 0.203 -0.293 0.469 -0.5 0.844 -0.5 c 0.098 0.004 0.223 0.039 0.313 0.094 c -0.258 0.004 -0.438 0.195 -0.438 0.438 c 0 0.238 0.211 0.438 0.469 0.438 c 0.266 0 0.469 -0.199 0.469 -0.438 c -0.004 -0.082 -0.02 -0.141 0 -0.219 c 0.008 -0.215 -0.121 -0.402 -0.281 -0.5 c -0.148 -0.098 -0.352 -0.125 -0.52 -0.125 m -0.16 5.969 c 1.375 2.246 3.758 4.797 3.281 6.469 c -2.031 2.777 -4.57 2.648 -6.406 0 c -0.41 -1.441 1.727 -4.184 3.125 -6.469 m 7.094 7.125 c 0.977 1.602 2.652 3.402 2.313 4.594 c -1.445 1.977 -3.254 1.887 -4.563 0 c -0.289 -1.027 1.258 -2.969 2.25 -4.594 m -6.688 6.03 c 0.691 1.148 1.895 2.438 1.648 3.281 c -1.035 1.41 -2.313 1.344 -3.25 0 c -0.207 -0.727 0.883 -2.121 1.602 -3.281 m 0 0" fill="#f9f9f9" stroke="none" fill-rule="nonzero" fill-opacity="1"/></g></g></g></g><g><g transform="translate(0,-1004.3622)"><path d="m 1 1043.36 0 4 c 0 2.216 1.784 4 4 4 l 38 0 c 2.216 0 4 -1.784 4 -4 l 0 -4 c 0 2.216 -1.784 4 -4 4 l -38 0 c -2.216 0 -4 -1.784 -4 -4 z" opacity="0.1"/></g></g></svg>
